X:1
T:Avec du vin, endormons nous
T:Jean-Philippe Rameau (1683-1764)
%%score [ 1 2 3 ]
L:1/8
Q:1/4=80
M:4/4
K:C
V:1 treble nm="S"
V:2 treble nm="A"
V:3 bass nm="B"
V:1
"^Avec moderation" z8 | z8 | z8 | z8 | z4 D2 E F |: E2 G2 ^F2 A2 | D2 D2 G4- | G4 F4- | F4 _E2 C2 | %9
w: ||||A- vec du|vin en- dor- mons|nous, en- dor-|* mons|_ nous, en-|
 _A4 G4 | E4 F2 G _A | G2 _B2 A2 c2 | F2 F2 _B4- | B4 _A4- | A4 _G2 _E2 | _c4 _B4 | G4 _A2 _B _c | %17
w: dor- mons|nous. A- vec du|vin en- dor- mons|nous, en- dor-|* mons|_ nous, en-|dor- mons|nous. A- vec du|
 _B2 _d2 =c2 _e2 | _A2 A2 _d4- | d4 _c4- | c4 A2 ^F2 | d4 ^c4 | ^A4 B2 ^c d | ^c2 e2 ^d2 ^f2 | %24
w: vin en- dor- mons|nous, en- dor-|* mons|_ nous, en-|dor- mons|nous. A- vec du|vin en- dor- mons|
 B2 B2 e4- |1 e4 d4- | d4 c2 A2 | F4 E4 | ^C4 D2 E F :|2 e4 ^d4 || e8 |] %31
w: nous, en- dor-|* mons|_ nous, en-|dor- mons|nous. A- vec du|(dor)- mons|nous.|
V:2
 z8 | z8 | z4 A,2 B, C | B,2 D2 ^C2 E2 | A,2 A,2 D4- |: D4 C4- | C4 ^A,2 G,2 | ^D4 =D4 | %8
w: ||A- vec du|vin en- dor- mons|nous, en- dor-|* mons|_ nous, en-|dor- mons|
 B,4 C2 D _E | D2 F2 E2 G2 | C2 C2 F4- | F4 _E4- | E4 _D2 _B2 | _G4 F4 | D4 _E2 F _G | %15
w: nous. A- vec du|vin en- dor- mons|nous, en- dor-|* mons|_ nous, en-|dor- mons|nous. A- vec du|
 F2 _A2 G2 _B2 | _E2 E2 _A4- | A4 _G4- | G4 E2 ^C2 | A4 ^G4 | ^E4 ^F2 ^G A | ^G2 B2 ^A2 ^c2 | %22
w: vin en- dor- mons|nous, en- dor-|* mons|_ nous, en-|dor- mons|nous. A- vec du|vin en- dor- mons|
 ^F2 F2 B4- | B4 A4- | A4 G2 E2 |1 C4 B,4 | ^G,4 A,2 B, C | B,2 D2 ^C2 E2 | A,2 A,2 D4 :|2 c4 B4 || %30
w: nous, en- dor-|* mons|_ nous, en-|dor- mons|nous. A- vec du|vin en- dor- mons|nous, en- dor|dor- mons|
 ^G8 |] %31
w: nous.|
V:3
 z4 E,2 ^F, G, | ^F,2 A,2 ^G,2 B,2 | E,2 E,2 A,4- | A,4 G,4- | G,4 F,2 D,2 |: _B,4 A,4 | %6
w: A- vec du|vin en- dor- mons|nous, en- dor-|* mons|_ nous, en-|dor- mons|
 ^F,4 G,2 A, _B, | A,2 C2 B,2 D2 | G,2 G,2 C4- | C4 _B,4- | B,4 _A,2 F,2 | _D,4 C,4 | %12
w: nous. A- vec du|vin en- dor- mons|nous, en- dor-|* mons|_ nous, en-|dor- mons|
 A,,4 _B,,2 C, _D, | C,2 _E,2 D,2 F,2 | _B,,2 B,,2 _E,4- | E,4 _D,4- | D,4 B,,2 ^G,,2 | E,4 ^D,4 | %18
w: nous. A- vec du|vin en- dor- mons|nous, en- dor-|* mons|_ nous, en-|dor- mons|
 ^B,,4 ^C,2 ^D, E, | ^D,2 ^F,2 ^E,2 ^G,2 | ^C,2 C,2 ^F,4- | F,4 E,4- | E,4 D,2 B,,2 | G,4 ^F,4 | %24
w: nous. A- vec du|vin en- dor- mons|nous, en- dor-|* mons|_ nous, en-|dor- mons|
 ^D,4 E,2 ^F, G, |1 ^F,2 A,2 ^G,2 B,2 | E,2 E,2 A,4- | A,4 G,4- | G,4 F,2 D,2 :|2 %29
w: nous. A- vec du|vin en- dor- mons|nous, en- dor-|* mons|_ nous, en|
 ^F,2 A,2 B,2 B,,2 || E,8 |] %31
w: vin en- dor- mons|nous.|

